dist/img/svg/screpa.svg

<svg width="18" height="20" viewBox="0 0 18 20" fill="none" xmlns="http://www.w3.org/2000/svg">
<path d="M12.2168 5.93959L6.43472 11.8912C6.33708 11.9883 6.2592 12.1044 6.20562 12.2327C6.15204 12.3611 6.12384 12.4991 6.12266 12.6388C6.12148 12.7785 6.14735 12.9171 6.19875 13.0464C6.25015 13.1757 6.32606 13.2931 6.42205 13.3919C6.51804 13.4907 6.63218 13.5688 6.75781 13.6217C6.88345 13.6746 7.01807 13.7012 7.15381 13.7C7.28955 13.6988 7.42369 13.6698 7.54842 13.6146C7.67314 13.5595 7.78595 13.4794 7.88025 13.3789L13.6634 7.42829C14.2386 6.83633 14.5618 6.03346 14.5618 5.1963C14.5618 4.35914 14.2386 3.55627 13.6634 2.9643C13.0882 2.37234 12.3081 2.03978 11.4946 2.03978C10.6811 2.03978 9.90099 2.37234 9.32578 2.9643L3.54263 8.91594C3.05814 9.40213 2.67228 9.98249 2.40743 10.6234C2.14258 11.2642 2.00402 11.9528 1.99978 12.6492C1.99554 13.3456 2.12571 14.036 2.38273 14.6802C2.63976 15.3244 3.01852 15.9097 3.49706 16.4021C3.97559 16.8945 4.54437 17.2842 5.1704 17.5487C5.79642 17.8131 6.46724 17.947 7.14393 17.9425C7.82061 17.938 8.48971 17.7953 9.11239 17.5227C9.73507 17.25 10.299 16.8528 10.7713 16.3542L16.5545 10.4036L18 11.8912L12.2168 17.8429C11.5523 18.5268 10.7634 19.0693 9.89513 19.4394C9.02686 19.8095 8.09626 20 7.15646 20C6.21666 20 5.28607 19.8095 4.4178 19.4394C3.54954 19.0693 2.76062 18.5268 2.09608 17.8429C1.43154 17.159 0.904399 16.3471 0.544753 15.4535C0.185107 14.5599 -7.00206e-09 13.6022 0 12.635C7.00206e-09 11.6679 0.185107 10.7102 0.544753 9.8166C0.904399 8.92305 1.43154 8.11114 2.09608 7.42724L7.88025 1.47666C8.84429 0.518434 10.1355 -0.0117866 11.4757 0.000198857C12.8159 0.0121843 14.0979 0.565417 15.0456 1.54074C15.9934 2.51606 16.5309 3.83544 16.5426 5.2147C16.5542 6.59397 16.039 7.92276 15.1079 8.91488L9.32578 14.8686C9.04091 15.1617 8.70272 15.3942 8.33053 15.5528C7.95834 15.7114 7.55945 15.793 7.15661 15.793C6.75378 15.7929 6.3549 15.7112 5.98275 15.5525C5.6106 15.3938 5.27247 15.1613 4.98765 14.8681C4.70284 14.5749 4.47693 14.2269 4.32282 13.8438C4.1687 13.4608 4.08941 13.0503 4.08946 12.6357C4.0895 12.2212 4.16889 11.8107 4.32309 11.4277C4.47729 11.0447 4.70329 10.6967 4.98817 10.4036L10.7713 4.45195L12.2168 5.93959Z" fill="#9BE2F9"/>
</svg>

<svg width="18" height="20" viewBox="0 0 18 20" fill="none" xmlns="http://www.w3.org/2000/svg"><path d="M12.217 5.94l-5.782 5.95a1.055 1.055 0 00-.312.748 1.08 1.08 0 00.299.753 1.02 1.02 0 00.732.308.996.996 0 00.726-.321l5.783-5.95a3.204 3.204 0 00.899-2.233c0-.837-.323-1.64-.899-2.232a3.024 3.024 0 00-2.168-.924c-.814 0-1.594.332-2.17.924L3.544 8.916a5.268 5.268 0 00-1.136 1.707 5.392 5.392 0 00-.024 4.057 5.28 5.28 0 001.114 1.722A5.105 5.105 0 005.17 17.55a4.985 4.985 0 003.942-.026 5.11 5.11 0 001.66-1.169l5.783-5.95L18 11.89l-5.783 5.952a7.145 7.145 0 01-2.322 1.596 6.981 6.981 0 01-5.477 0 7.146 7.146 0 01-2.322-1.596 7.383 7.383 0 01-1.551-2.39 7.552 7.552 0 010-5.636 7.383 7.383 0 011.551-2.39l5.784-5.95A5.035 5.035 0 0111.476 0a5.04 5.04 0 013.57 1.54 5.338 5.338 0 011.497 3.675 5.343 5.343 0 01-1.435 3.7l-5.782 5.954a3.063 3.063 0 01-.995.684 2.993 2.993 0 01-2.348 0 3.063 3.063 0 01-.995-.685 3.164 3.164 0 01-.665-1.024 3.236 3.236 0 010-2.416c.154-.383.38-.731.665-1.024l5.783-5.952 1.446 1.488z" fill="#9BE2F9"/></svg>
